build/img/links/facebook.svg

<svg width="11" height="19" viewBox="0 0 11 19" fill="none" xmlns="http://www.w3.org/2000/svg">
<path d="M7.34281 18.8721V10.3346H10.303L10.743 6.99184H7.34281V4.86268C7.34281 3.89809 7.61903 3.23768 9.04186 3.23768H10.8447V0.257468C9.96754 0.166 9.0858 0.121835 8.20357 0.125176C5.58702 0.125176 3.79055 1.67934 3.79055 4.53247V6.98559H0.849609V10.3283H3.79698V18.8721H7.34281Z" fill="#F3F3F3"/>
</svg>

<svg width="11" height="19" fill="none" xmlns="http://www.w3.org/2000/svg"><path d="M7.343 18.872v-8.537h2.96l.44-3.343h-3.4v-2.13c0-.964.276-1.624 1.699-1.624h1.803V.258A24.57 24.57 0 008.204.124C5.587.125 3.79 1.68 3.79 4.532v2.454H.85v3.342h2.947v8.544h3.546z" fill="#F3F3F3"/></svg>
